icon-svg/aqara-thermo-e1.svg

<svg xmlns="http://www.w3.org/2000/svg" fill="#44739e" viewBox="0 0 24 24"><path d="M19.265 6.685a3.992 3.992 0 0 0-3.2-1.659l-7.88 1.93A6 6 0 0 1 12.2 11.5c.391 1.778.853 4.644-1.258 6.48l7.971-2.24a3.69 3.69 0 0 0 1.887-3.02 10.19 10.19 0 0 0-.291-3.743 6.2 6.2 0 0 0-1.244-2.292M5.903 15.492l-.09-.034v.283l.002.001v.026l.284.096-.002-.088-.193-.067Zm-.054-.238a.339.339 0 0 0-.483.33.714.714 0 0 0 .493.638.344.344 0 0 0 .483-.333.747.747 0 0 0-.493-.635m.009.866a.565.565 0 0 1-.389-.5.268.268 0 0 1 .381-.261.587.587 0 0 1 .389.5.27.27 0 0 1-.381.261m1.152-2.207-.001.211.212.066-.004-.205Zm.079-1.664a.093.093 0 0 0 .13-.089.2.2 0 0 0-.132-.17.091.091 0 0 0-.13.088.19.19 0 0 0 .132.171m.636 1.467.001.089-.012.014.001.138.038.047.039-.012-.004-.235-.038-.048Zm-.341.085v-.141l-.013-.027v-.09l-.025-.033-.038.011v.243l.037.048zm.353-.108-.038-.048-.303-.15-.038.011.038.049.303.149zm-.034.326.038-.011-.039-.048-.108-.05-.038.012.038.047Zm-.344-.19.037.048.109.051.038-.012-.038-.048-.109-.051zm.038.309-.038.014.038.047.309.135.039-.012-.039-.047zm-.025-.101.012-.015v-.141l-.039-.048-.037.012v.243l.038.048.026-.009zm.382-.014-.038.012.002.138.012.025.001.089.026.031.039-.013-.003-.235Zm-.342-1.403v-.091l.012-.014v-.141l-.039-.05-.038.01v.243l.039.05zm.012-.326v-.141l-.013-.027v-.091l-.026-.034-.038.009v.243l.038.05zm.013.338-.038.011.038.05.309.152.039-.011-.04-.048zm.302-.416.038-.008-.038-.051-.304-.168-.037.009.038.051Zm-1.34 1.659-.094.076.012.484.033.078.008.311.067.088.097-.077-.022-.828Zm-.101-.201.099.132.096-.076-.022-.828-.101-.134-.062.05.007.311-.029.06zM4.951 12.33l-.063.051.004.317-.03.061.006.494.098.134.097-.077-.012-.844zm-.992.793.098.136.277.082.095-.078-.097-.135-.277-.083zm.038.723.031-.062-.003-.499-.099-.137-.096.079.004.857.099.135.066-.053zm.066.338-.097.08.098.134.788.22.098-.078-.1-.134zm.4-.911.098.135.277.081.097-.076-.1-.135-.277-.082zm.36-.912.097-.075-.099-.137-.773-.244-.096.077.097.137Zm6.892-1.261a5.831 5.831 0 0 0-3.944-4.018c-1.354.366-2.026.585-3.381.952-2.772 1.1-2.631 4.523-2.04 6.486.632 2.1 2.063 4.975 5.123 4.386l3.027-.836c2.332-2.262 1.712-5.17 1.215-6.97m-4.694 7.3c-1.665.42-3.578-1.468-4.272-4.217s.095-5.32 1.76-5.74S8.088 9.9 8.781 12.655s-.094 5.319-1.76 5.739Zm14.84-9.232a3.709 3.709 0 0 0-2.052-2.6l-.37.11a6.19 6.19 0 0 1 1.245 2.292 10.18 10.18 0 0 1 .291 3.742l.15-.053c.839-.566 1.052-2.369.736-3.491"/></svg>

<?xml version="1.0" encoding="UTF-8"?>
<svg width="24px" fill="#44739e" height="24px" viewBox="0 0 24 24" version="1.1" xmlns="http://www.w3.org/2000/svg" xmlns:xlink="http://www.w3.org/1999/xlink">
            <path d="m 19.265,6.685 a 3.992,3.992 0 0 0 -3.2,-1.659 l -7.88,1.93 A 6,6 0 0 1 12.2,11.5 c 0.391,1.778 0.853,4.644 -1.258,6.48 l 7.971,-2.24 A 3.69,3.69 0 0 0 20.8,12.72 10.188,10.188 0 0 0 20.509,8.977 6.2,6.2 0 0 0 19.265,6.685 Z M 5.903,15.492 5.813,15.458 v 0.283 l 0.002,0.001 v 0.026 L 6.099,15.864 6.097,15.776 5.904,15.709 Z M 5.849,15.254 a 0.339,0.339 0 0 0 -0.483,0.33 0.714,0.714 0 0 0 0.493,0.638 0.344,0.344 0 0 0 0.483,-0.333 0.747,0.747 0 0 0 -0.493,-0.635 z m 0.009,0.866 a 0.565,0.565 0 0 1 -0.389,-0.5 0.268,0.268 0 0 1 0.381,-0.261 0.587,0.587 0 0 1 0.389,0.5 0.27,0.27 0 0 1 -0.381,0.261 z M 7.01,13.913 7.009,14.124 7.221,14.19 7.217,13.985 Z m 0.079,-1.664 a 0.093,0.093 0 0 0 0.13,-0.089 0.2,0.2 0 0 0 -0.132,-0.17 0.091,0.091 0 0 0 -0.13,0.088 0.19,0.19 0 0 0 0.132,0.171 z m 0.636,1.467 0.001,0.089 -0.012,0.014 10e-4,0.138 0.038,0.047 L 7.792,13.992 7.788,13.757 7.75,13.709 Z M 7.384,13.801 V 13.66 L 7.371,13.633 v -0.09 L 7.346,13.51 7.308,13.521 v 0.243 l 0.037,0.048 z m 0.353,-0.108 -0.038,-0.048 -0.303,-0.15 -0.038,0.011 0.038,0.049 0.303,0.149 z M 7.703,14.019 7.741,14.008 7.702,13.96 7.594,13.91 7.556,13.922 7.594,13.969 Z m -0.344,-0.19 0.037,0.048 0.109,0.051 0.038,-0.012 -0.038,-0.048 -0.109,-0.051 z m 0.038,0.309 -0.038,0.014 0.038,0.047 0.309,0.135 0.039,-0.012 -0.039,-0.047 z M 7.372,14.037 7.384,14.022 V 13.881 L 7.345,13.833 7.308,13.845 v 0.243 l 0.038,0.048 0.026,-0.009 z m 0.382,-0.014 -0.038,0.012 0.002,0.138 0.012,0.025 10e-4,0.089 0.026,0.031 L 7.796,14.305 7.793,14.07 Z M 7.412,12.62 v -0.091 l 0.012,-0.014 v -0.141 l -0.039,-0.05 -0.038,0.01 v 0.243 l 0.039,0.05 z M 7.424,12.294 V 12.153 L 7.411,12.126 V 12.035 L 7.385,12.001 7.347,12.01 v 0.243 l 0.038,0.05 z m 0.013,0.338 -0.038,0.011 0.038,0.05 0.309,0.152 0.039,-0.011 -0.04,-0.048 z M 7.739,12.216 7.777,12.208 7.739,12.157 7.435,11.989 7.398,11.998 7.436,12.049 Z m -1.34,1.659 -0.094,0.076 0.012,0.484 0.033,0.078 0.008,0.311 0.067,0.088 L 6.522,14.835 6.5,14.007 Z M 6.298,13.674 6.397,13.806 6.493,13.73 6.471,12.902 6.37,12.768 l -0.062,0.05 0.007,0.311 -0.029,0.06 z m -1.347,-1.344 -0.063,0.051 0.004,0.317 -0.03,0.061 0.006,0.494 0.098,0.134 0.097,-0.077 -0.012,-0.844 z m -0.992,0.793 0.098,0.136 0.277,0.082 0.095,-0.078 -0.097,-0.135 -0.277,-0.083 z m 0.038,0.723 0.031,-0.062 -0.003,-0.499 -0.099,-0.137 -0.096,0.079 0.004,0.857 0.099,0.135 0.066,-0.053 z m 0.066,0.338 -0.097,0.08 0.098,0.134 0.788,0.22 0.098,-0.078 -0.1,-0.134 z m 0.4,-0.911 0.098,0.135 0.277,0.081 0.097,-0.076 -0.1,-0.135 -0.277,-0.082 z M 4.823,12.361 4.92,12.286 4.821,12.149 4.048,11.905 3.952,11.982 4.049,12.119 Z M 11.715,11.1 A 5.831,5.831 0 0 0 7.771,7.082 C 6.417,7.448 5.745,7.667 4.39,8.034 c -2.772,1.1 -2.631,4.523 -2.04,6.486 0.632,2.1 2.063,4.975 5.123,4.386 L 10.5,18.07 c 2.332,-2.262 1.712,-5.17 1.215,-6.97 z M 7.021,18.4 C 5.356,18.82 3.443,16.932 2.749,14.183 2.055,11.434 2.844,8.863 4.509,8.443 6.174,8.023 8.088,9.9 8.781,12.655 9.474,15.41 8.687,17.974 7.021,18.394 Z m 14.84,-9.232 a 3.709,3.709 0 0 0 -2.052,-2.6 l -0.37,0.11 a 6.19,6.19 0 0 1 1.245,2.292 10.184,10.184 0 0 1 0.291,3.742 l 0.15,-0.053 c 0.839,-0.566 1.052,-2.369 0.736,-3.491 z"/>

</svg>
